X:1
T:Leave, alas, this tormenting - Morley
T:James Gibb editions 
T:#
%%score [ 1 2 { 3 | 4 } 5 ]
L:1/8
Q:1/4=100
M:2/2
K:C
V:1 treble nm="Soprano" snm="S"
V:2 treble nm="Alto" snm="A"
V:3 treble-8 nm="Tenor 1" snm="T"
V:4 treble-8 
V:5 bass nm="Bass" snm="B"
V:1
 z8 | z8 | z8 | z8 | z8 | z8 | z8 | z8 ||[K:Eb][M:2/2][K:treble] z8 | z8 | z8 | z8 | z4!mf! c4- | %13
w: ||||||||||||Leave,|
 c4 c4 | _d8 | c4 c4 | c8 | c8 | z4 c4- | c4 c4 | e4 c2 c2 | B8- | B8 | =A4 c4 | _d4 (c4- | %25
w: * a-|las,|this tor-|ment-|ing,|leave,|* a-|las, this tor-|ment\-||ing and|strange an\-|
 c2 BA B4) | c8 | z8 | z4 z2!f! c2 | e3 e d2 c2 | (=B2 c4 B2) | c2!mp! c4 _d2- | d2 c2 B4 | %33
w: |guish,||Or|kill my heart op-|press\- * *|ed. A- las,|* it skill|
 A2 c2 e2 B2 | c8 | =A4 z4 |: z2!mf! f2 f2 f2 | e2 c4 A2 | G2 A2 B4 || (3:2:2E8 z4 | %40
w: not, a- las, it|skill|not!|For thus I|will not, for|thus I will|not,|
 (3c2 d2 e4 (3:2:1e4 x11/4 | (3:2:2c8 c4 || _d8 | c8 | z8 | z8 | f8- | f4 e4 | _d4 d4 | c8 | %50
w: Now con- tent- ed,|Then tor-|ment-|ed,|||Live|* in|love and|lan-|
 B4 E2 E2 | F4 F4- | F4 (=E2 F2) | G8 | c8- | c4"^cresc." d4 | =e4 f4 | (g4 f4 | =e4 f4- | %59
w: guish, live in|love and|* lan\- *|guish,|live|* in|love and|lan\- *||
 f4 =e4) ||1 f8 |1 z8 :|2 !fermata!f8 |]2 x8 |] %64
w: |guish.||guish.||
V:2
[K:Eb]"^Leave, alas, this tormenting""^Thomas Morley \n(1557-1603)" z8 |!mf! F6 F2 | A8 | G4 G4 | %4
w: |Leave, a-|las,|this tor-|
 A8 | F4 F4- | F4 F4 | F8 ||[M:2/2] F4 A4 | G8 | G8 | z4 A4 | G4 F4 | =E4 F4- | F4 F4 | A8 | %16
w: ment-|ing, leave,|* a-|las,|this tor-|ment-|ing|and|strange an-|guish, leave,|* a-|las,|
 G4 G4 | A8 | F8 | z4 E4- | E2 E2 A4 | F4 F4 | G8 | C2 F2 A4- | A4 (E4 | F8) | =E4 G4 | %27
w: this tor|ment-|ing,|leave,|* a- las,|this tor-|ment-|ing and strange|* an\-||guish, Or|
!f! A3 A G2 F2 | (=E2 F2) E2 G2 | G3 E F2 F2 | G8 | =E2!mp! G2 A2 B2- | B2 (A4 G2) | A2 A2 G2 F2 | %34
w: kill my heart op-|press\- * ed, or|kill my heart op-|press-|ed. A- las, it|* skill *|not, a- las, it|
 (=E2 F4 E2) | F8 |: z2!mf! F2 A2 B2 | c2 A4 z2 | z8 || (3:2:2z8 A2 (3:2:1B2 | (3c4 c4 A8 x/12 | %41
w: skill * *|not!|For thus I|will not,||Now con-|tent- ed, Then|
 (3:2:1A4 x16/3 || A8 | A8 | z8 | F8- | F4 G4 | x8 | =A4 A4 | B8 | F8 | z8 | z8 | z4 C4- | C4 D4 | %55
w: tor-|ment-|ed,||Live|* in||love and|lan-|guish,|||live|* in|
 =E4 F4 | G2 C2 z4 |"^cresc." c8- | c4 A4 | G4 F4 ||1 G8 |1 =A8 :|2 z8 |]2 !fermata!=A8 |] %64
w: love and|lan- guish,|live|* in|love and|lan-|guish.||guish.|
V:3
[K:Eb]!mf! c6 c2 | _d4 c4- | c2 c2 (f4- | f2 =ed e4) | f4 c4- | c4 (B4- | B4 =A4) | B4 _d4 || %8
w: Leave, a-|las, this|* tor- ment\-||ing, tor\-|* ment\-||ing, leave,|
[M:2/2][K:treble-8] c4 f4- | f2 f2 e4 | d8 | =e4 f4 | c4 c4 | c8 | z8 | z4 f4- | f4 =e4 | %17
w: a- las,|* this tor-|ment-|ing and|strange an-|guish,||leave,|* a-|
 f4 f2 g2 | a8 | e8 | z4 c4 | d2 (e2 f4- | f4 =e4) | f8 | z4 c4 | F4 F4 | c4!f! c4 | c3 A B2 B2 | %28
w: las, this tor-|ment-|ing,|tor-|ment- * *||ing.|and|strange an-|guish, Or|kill my heart op-|
 c6 e2 | e3 c de f2- | f2 e2 d4 | c2!mp! e2 f2 f2 | e8 | c4 G2 B2- | B2 A2 G4 | F4 z2!mf! f2 |: %36
w: pressed, or|kill my heart op- press\-||ed. A- las, it|skill|not, a- las,|* it skill|not! For|
 f2 f2 _d4 | e6 e2 | e2 e2 _d4 || (3:2:2c8 z4 | (3:2:2z4 c2 (3:2:2d2 e4 x11/4 | (3e4 e4 e4 || f8 | %43
w: thus I will|not, for|thus I will|not,|Now con- tent-|ed, Then tor-|ment-|
 e4 c4- | c4 B4 | A4 G4 | F8 | c8 | F8 | F8- | F4 A4 | F6 G2 | (A4 G4) | =E4 z4 | z4 c4- | %55
w: ed, Live|* in|love and|lan\-||guish,|live|* in|love and|lan\- *|guish,|live|
 c4"^cresc." A4 | G4 F4 | c8 | c4 A4 | G8 ||1 F8 |1 z4 z2!mf! f2 :|2 !fermata!F8 |]2 x8 |] %64
w: * in|love and|lan-|guish, and|lan-|guish.|For|guish.||
V:4
[K:Eb] z8 | z4!mf! F4- | F4 F4 | c8 | F4 F4 | _d8 | c8 | _d4 B4 ||[M:2/2][K:treble-8] =A4 c4 | %9
w: |Leave,|* a-|las,|this tor-|ment-|ing,|leave, a-|las, this|
 =B4 (c4- | c4 =B4) | c4 c4 | G4 A4 | G4 =A4 | B4 B4 | c4 c4- | c4 c4 | F4 c4- | c4 c4 | c4 A4- | %20
w: tor- ment\-||ing and|strange an-|guish, and|strange an-|guish, leave,~|* a-|las, this|* tor-|ment- ing,|
 A4 E4 | B8 | B8 | z4 F4- | F4 A4- | A4 F4 | G4!f! E4 | A3 F GA (B2- | B2 A2) G2 c2 | c3 c B2 A2 | %30
w: * tor-|ment-|ing|and|* strange|* an-|guish, Or|kill my heart op- press\-|* * ed, or|kill my heart op-|
 G8 | z2!mp! c2 A2 F2 | G2 A2 B2 E2- | E2 A2 B2 F2 | c4 c2!mf! c2 | c2 c2 A4 |: F4 z2 F2 | %37
w: pressed.|A- las, a-|las, it skill not,|* a- las, it|skill not! For|thus I will|not, for|
 A3 B c4 | B2 A2 (A2 G2) || (3:2:2A8 c2 (3:2:1d2 | (3e4 e4 z4 x11/4 | (3:2:2A8 A4 || A8 | A8 | z8 | %45
w: thus I will|not, I will *|not, Now con-|tent- ed,|Then tor-|ment-|ed,||
 z8 | z8 | z8 | z4 f4- | f4 e4 | _d4 c4 | (c4 B4) | c4 z4 | c8- | c4 A4 | =E4"^cresc." F4 | c4 A4 | %57
w: |||Live|* in|love and|lan\- *|guish,|live|* in|love and|lan\- *|
 G4 A2 F2 | G4 c4 | c8 ||1 c4 z2!mf! c2 |1 c2 c2 A4 :|2 !fermata!c8 |]2 x8 |] %64
w: guish, live in|love and|lan-|guish. For|thus I will|guish.||
V:5
[K:Eb] z8 | z8 | z8 | z8 | z8 |!mf! F,8- | F,4 F,4 | B,,8 ||[M:2/2] F,4 F,4 | G,8- | G,8 | %11
w: |||||Leave,|* a-|las,|this tor-|ment\-||
 C,4 F,4 | =E,4 F,4 | C,4 F,4 | B,,8 | F,8 | C,8 | z4 F,4- | F,4 F,4 | A,8 | A,,4 A,,4 | %21
w: ing and|strange an-|guish, and|strange|an-|guish,|leave,|* a-|las,|this tor-|
 (B,,6 A,,2 | G,,8) | F,,8 | z4 C,4 | _D,4 D,4 | C,4!f! C,4 | F,3 F, E,2 D,2 | C,8 | z8 | z8 | %31
w: ment\- *||ing|and|strange an-|guish, Or|kill my heart op-|pressed.|||
 z2!mp! C,2 F,2 _D,2 | E,8 | A,,2 F,2 E,2 _D,2 | C,8 | F,,2!mf! F,2 F,2 F,2 |: _D,8 | A,,6 A,,2 | %38
w: A- las, it|skill|not, a- las, it|skill|not! For thus I|will|not, for|
 E,2 C,2 B,,4 || (3:2:2A,,8 A,2 (3:2:1B,2 | (3:2:2A,4 A,8 x11/4 | (3:2:2A,,8 A,,4 || _D,8 | A,,8 | %44
w: thus I will|not, Now con-|tent- ed,|Then tor-|ment-|ed,|
 F,8- | F,4 E,4 | _D,8 | C,8 | B,,8 | =A,,4 A,,2 A,,2 | B,,4 C,4 | _D,8 | C,8- | C,8 | z8 | C,8- | %56
w: Live|* in|love|and|lan-|guish, live in|love and|lan-|guish,|||live|
"^cresc." C,4 =D,4 | =E,4 F,4 | C,8- | C,8 ||1 F,,8 |1 z2!mf! F,2 F,2 F,2 :|2 !fermata!F,,8 |]2 %63
w: * in|love and|lan\-||guish.|For thus I|guish.|
 x8 |] %64
w: |

